x-pack/solutions/search/plugins/enterprise_search/public/assets/client_libraries/python.svg

<svg width="24" height="24" viewBox="0 0 24 24" fill="none" xmlns="http://www.w3.org/2000/svg">
<path d="M11.8858 2.29654C11.0942 2.30029 10.3386 2.3676 9.67335 2.48535C7.71398 2.83147 7.35848 3.55597 7.35848 4.89229V6.65685H11.9884V7.24504H5.62073C4.27523 7.24504 3.09698 8.05372 2.72835 9.59272C2.3031 11.3562 2.28435 12.4568 2.72835 14.2982C3.05741 15.669 3.84341 16.6455 5.1891 16.6455H6.78116V14.5302C6.78116 13.0018 8.10323 11.6539 9.67354 11.6539H14.2982C15.5856 11.6539 16.6131 10.5938 16.6131 9.30116V4.89247C16.6131 3.63754 15.5545 2.69497 14.2982 2.48554C13.5025 2.35316 12.6773 2.29297 11.8858 2.29654ZM9.38198 3.71572C9.8601 3.71572 10.2509 4.11266 10.2509 4.60091C10.2509 5.0871 9.86029 5.48029 9.38198 5.48029C8.90198 5.48029 8.51329 5.0871 8.51329 4.60091C8.5131 4.11266 8.90198 3.71572 9.38198 3.71572Z" fill="url(#paint0_linear_2584_222770)"/>
<path d="M17.1903 7.24482V9.30094C17.1903 10.8947 15.8388 12.2363 14.298 12.2363H9.67327C8.40652 12.2363 7.3584 13.3206 7.3584 14.5892V18.9983C7.3584 20.2528 8.44927 20.991 9.67327 21.3508C11.1388 21.7815 12.5443 21.8595 14.298 21.3508C15.4635 21.0131 16.6128 20.334 16.6128 18.9983V17.2335H11.9883V16.6451H18.9281C20.2736 16.6451 20.7753 15.7067 21.2433 14.2978C21.7267 12.8475 21.7059 11.4527 21.2433 9.59232C20.9107 8.25263 20.2756 7.24463 18.9281 7.24463H17.1903V7.24482ZM14.5891 18.4099C15.0693 18.4099 15.458 18.8031 15.458 19.2896C15.458 19.7775 15.0691 20.1744 14.5891 20.1744C14.111 20.1744 13.7205 19.7775 13.7205 19.2896C13.7205 18.8031 14.111 18.4099 14.5891 18.4099Z" fill="url(#paint1_linear_2584_222770)"/>
<path opacity="0.444" d="M18.2455 22.4244C18.2455 23.0887 15.4675 23.6274 12.0409 23.6274C8.61418 23.6274 5.83618 23.0887 5.83618 22.4244C5.83618 21.7599 8.61399 21.2212 12.0409 21.2212C15.4675 21.2212 18.2455 21.7597 18.2455 22.4244Z" fill="url(#paint2_radial_2584_222770)"/>
<defs>
<linearGradient id="paint0_linear_2584_222770" x1="1.9382" y1="2.84828" x2="12.617" y2="11.9551" gradientUnits="userSpaceOnUse">
<stop stop-color="#5A9FD4"/>
<stop offset="1" stop-color="#306998"/>
</linearGradient>
<linearGradient id="paint1_linear_2584_222770" x1="16.6347" y1="17.6159" x2="12.8051" y2="12.2455" gradientUnits="userSpaceOnUse">
<stop stop-color="#FFD43B"/>
<stop offset="1" stop-color="#FFE873"/>
</linearGradient>
<radialGradient id="paint2_radial_2584_222770" cx="0" cy="0" r="1" gradientUnits="userSpaceOnUse" gradientTransform="translate(12.0159 22.3899) rotate(-90) scale(1.20343 5.2901)">
<stop stop-color="#B8B8B8" stop-opacity="0.498"/>
<stop offset="1" stop-color="#7F7F7F" stop-opacity="0"/>
</radialGradient>
</defs>
</svg>

<svg xmlns="http://www.w3.org/2000/svg" width="24" height="24" fill="none"><path fill="url(#a)" d="M11.886 2.297c-.792.003-1.547.07-2.213.188-1.959.346-2.315 1.071-2.315 2.407v1.765h4.63v.588H5.621c-1.346 0-2.524.809-2.893 2.348-.425 1.763-.444 2.864 0 4.705.33 1.371 1.115 2.347 2.461 2.347h1.592V14.53c0-1.528 1.322-2.876 2.893-2.876h4.624c1.288 0 2.315-1.06 2.315-2.353V4.892c0-1.254-1.058-2.197-2.315-2.406a14.5 14.5 0 0 0-2.412-.19M9.382 3.716c.478 0 .869.397.869.885 0 .486-.39.88-.869.88a.874.874 0 0 1-.869-.88c0-.488.389-.885.869-.885"/><path fill="url(#b)" d="M17.19 7.245V9.3c0 1.594-1.351 2.935-2.892 2.935H9.673c-1.266 0-2.315 1.085-2.315 2.353V19c0 1.254 1.091 1.992 2.315 2.352 1.466.43 2.871.509 4.625 0 1.165-.338 2.315-1.017 2.315-2.353v-1.765h-4.625v-.588h6.94c1.346 0 1.847-.938 2.315-2.347.484-1.45.463-2.845 0-4.706-.332-1.34-.967-2.347-2.315-2.347zm-2.6 11.165c.48 0 .868.393.868.88a.877.877 0 0 1-.869.884.88.88 0 0 1-.869-.884c0-.487.391-.88.87-.88"/><path fill="url(#c)" d="M18.246 22.424c0 .665-2.778 1.203-6.205 1.203s-6.205-.538-6.205-1.203c0-.664 2.778-1.203 6.205-1.203s6.204.539 6.204 1.203" opacity=".444"/><defs><linearGradient id="a" x1="1.938" x2="12.617" y1="2.848" y2="11.955" gradientUnits="userSpaceOnUse"><stop stop-color="#5A9FD4"/><stop offset="1" stop-color="#306998"/></linearGradient><linearGradient id="b" x1="16.635" x2="12.805" y1="17.616" y2="12.245" gradientUnits="userSpaceOnUse"><stop stop-color="#FFD43B"/><stop offset="1" stop-color="#FFE873"/></linearGradient><radialGradient id="c" cx="0" cy="0" r="1" gradientTransform="matrix(0 -1.20343 5.2901 0 12.016 22.39)" gradientUnits="userSpaceOnUse"><stop stop-color="#B8B8B8" stop-opacity=".498"/><stop offset="1" stop-color="#7F7F7F" stop-opacity="0"/></radialGradient></defs></svg>
